flaticon/transport/alloy-wheel-6.svg

<svg xmlns="http://www.w3.org/2000/svg" width="32" height="32" viewBox="0 0 24 24">
    <path d="M 12 0 C 5.398438 0 0 5.398438 0 12 C 0 18.601562 5.398438 24 12 24 C 18.601562 24 24 18.601562 24 12 C 24 5.398438 18.601562 0 12 0 Z M 12 23.199219 C 5.839844 23.199219 0.800781 18.160156 0.800781 12 C 0.800781 5.839844 5.839844 0.800781 12 0.800781 C 18.160156 0.800781 23.199219 5.839844 23.199219 12 C 23.199219 18.160156 18.160156 23.199219 12 23.199219 Z M 12 23.199219"/>
    <path d="M 21.601562 12 C 21.601562 9.1875 20.371094 6.644531 18.425781 4.886719 C 17.113281 3.675781 15.476562 2.847656 13.679688 2.519531 L 13.398438 2.480469 L 13.390625 2.5 C 12.9375 2.433594 12.472656 2.398438 12 2.398438 C 7.363281 2.398438 3.46875 5.730469 2.585938 10.117188 L 2.558594 10.121094 L 2.519531 10.398438 C 2.453125 10.835938 2.414062 11.296875 2.402344 11.738281 C 2.402344 11.746094 2.402344 11.753906 2.402344 11.761719 C 2.402344 11.84375 2.398438 11.921875 2.398438 12 C 2.398438 12.078125 2.402344 12.160156 2.402344 12.238281 C 2.402344 12.253906 2.402344 12.265625 2.40625 12.28125 C 2.40625 12.351562 2.410156 12.417969 2.414062 12.484375 C 2.414062 12.492188 2.414062 12.5 2.414062 12.503906 C 2.523438 14.679688 3.351562 16.726562 4.800781 18.359375 L 5 18.558594 L 5.007812 18.558594 C 6.761719 20.425781 9.25 21.601562 12 21.601562 C 12.0625 21.601562 12.121094 21.597656 12.179688 21.597656 C 12.199219 21.597656 12.21875 21.597656 12.238281 21.601562 C 12.480469 21.59375 12.71875 21.578125 12.957031 21.550781 C 12.964844 21.550781 12.972656 21.550781 12.984375 21.550781 C 13.007812 21.546875 13.03125 21.542969 13.054688 21.542969 C 15.1875 21.304688 17.113281 20.363281 18.597656 18.957031 L 18.601562 18.960938 L 18.800781 18.839844 C 20.601562 17 21.601562 14.601562 21.601562 12.039062 C 21.601562 12.035156 21.601562 12.027344 21.601562 12.019531 C 21.601562 12.015625 21.601562 12.007812 21.601562 12 Z M 20.796875 12.226562 C 20.796875 12.226562 20.796875 12.230469 20.796875 12.230469 C 20.738281 14.46875 19.832031 16.507812 18.390625 18.035156 C 17.195312 17.433594 16.398438 16.195312 16.398438 14.800781 C 16.398438 12.800781 18 11.199219 20 11.199219 C 20.238281 11.199219 20.519531 11.238281 20.761719 11.28125 C 20.769531 11.335938 20.777344 11.394531 20.78125 11.453125 C 20.792969 11.632812 20.800781 11.816406 20.800781 12 C 20.800781 12.074219 20.800781 12.152344 20.796875 12.226562 Z M 19.558594 7.519531 C 18.921875 8.078125 18.078125 8.398438 17.199219 8.398438 C 15.199219 8.398438 13.601562 6.800781 13.601562 4.800781 C 13.601562 4.320312 13.679688 3.84375 13.878906 3.402344 C 16.085938 3.886719 17.988281 5.207031 19.238281 7.011719 C 19.351562 7.175781 19.457031 7.347656 19.558594 7.519531 Z M 13.0625 3.265625 C 12.886719 3.753906 12.800781 4.265625 12.800781 4.800781 C 12.800781 7.238281 14.761719 9.199219 17.199219 9.199219 C 18.214844 9.199219 19.171875 8.855469 19.929688 8.191406 C 20.273438 8.902344 20.523438 9.664062 20.664062 10.460938 C 20.449219 10.421875 20.230469 10.398438 20 10.398438 C 17.558594 10.398438 15.601562 12.359375 15.601562 14.800781 C 15.601562 16.390625 16.441406 17.824219 17.796875 18.605469 C 17.324219 19.019531 16.808594 19.386719 16.253906 19.695312 C 15.757812 17.773438 14.015625 16.398438 12 16.398438 C 9.964844 16.398438 8.246094 17.75 7.722656 19.683594 C 7.015625 19.285156 6.367188 18.792969 5.796875 18.226562 C 7.140625 17.449219 8 16.003906 8 14.398438 C 8 11.960938 6.039062 10 3.601562 10 C 3.542969 10 3.488281 10.003906 3.429688 10.007812 C 3.574219 9.390625 3.78125 8.800781 4.046875 8.242188 C 4.828125 8.855469 5.785156 9.199219 6.800781 9.199219 C 9.238281 9.199219 11.199219 7.238281 11.199219 4.800781 C 11.199219 4.253906 11.109375 3.734375 10.90625 3.269531 C 11.265625 3.222656 11.628906 3.199219 12 3.199219 C 12.359375 3.199219 12.714844 3.222656 13.0625 3.265625 Z M 8.519531 19.878906 C 8.921875 18.320312 10.359375 17.199219 12 17.199219 C 13.71875 17.199219 15.160156 18.398438 15.519531 20.039062 C 14.480469 20.480469 13.359375 20.71875 12.238281 20.761719 C 10.921875 20.761719 9.679688 20.441406 8.519531 19.878906 Z M 3.234375 12.75 C 3.226562 12.703125 3.222656 12.652344 3.222656 12.601562 C 3.21875 12.578125 3.21875 12.554688 3.214844 12.53125 C 3.214844 12.488281 3.210938 12.449219 3.210938 12.410156 C 3.207031 12.371094 3.207031 12.335938 3.207031 12.296875 C 3.203125 12.265625 3.203125 12.238281 3.203125 12.207031 C 3.199219 12.140625 3.199219 12.070312 3.199219 12 C 3.199219 11.949219 3.199219 11.894531 3.203125 11.84375 C 3.210938 11.519531 3.242188 11.191406 3.273438 10.867188 C 3.277344 10.84375 3.28125 10.824219 3.28125 10.800781 C 3.402344 10.800781 3.480469 10.800781 3.601562 10.800781 C 5.601562 10.800781 7.199219 12.398438 7.199219 14.398438 C 7.199219 15.761719 6.441406 17 5.238281 17.601562 C 4.089844 16.238281 3.394531 14.542969 3.234375 12.777344 C 3.234375 12.769531 3.234375 12.761719 3.234375 12.75 Z M 10.121094 3.402344 C 10.320312 3.84375 10.398438 4.320312 10.398438 4.800781 C 10.398438 6.800781 8.800781 8.398438 6.800781 8.398438 C 5.921875 8.398438 5.078125 8.078125 4.441406 7.519531 C 4.542969 7.347656 4.648438 7.175781 4.761719 7.011719 C 6.011719 5.207031 7.914062 3.886719 10.121094 3.402344 Z M 10.121094 3.402344"/>
    <path d="M 8.800781 12 C 8.800781 13.761719 10.238281 15.199219 12 15.199219 C 13.761719 15.199219 15.199219 13.761719 15.199219 12 C 15.199219 10.238281 13.761719 8.800781 12 8.800781 C 10.238281 8.800781 8.800781 10.238281 8.800781 12 Z M 12 9.601562 C 13.320312 9.601562 14.398438 10.679688 14.398438 12 C 14.398438 13.320312 13.320312 14.398438 12 14.398438 C 10.679688 14.398438 9.601562 13.320312 9.601562 12 C 9.601562 10.679688 10.679688 9.601562 12 9.601562 Z M 12 9.601562"/>
    <path d="M12 11.199219C12.238281 11.199219 12.398438 11.039062 12.398438 10.800781 12.398438 10.558594 12.238281 10.398438 12 10.398438 11.761719 10.398438 11.601562 10.558594 11.601562 10.800781 11.601562 11.039062 11.761719 11.199219 12 11.199219zM12 13.601562C12.238281 13.601562 12.398438 13.441406 12.398438 13.199219 12.398438 12.960938 12.238281 12.800781 12 12.800781 11.761719 12.800781 11.601562 12.960938 11.601562 13.199219 11.601562 13.441406 11.761719 13.601562 12 13.601562zM13.199219 12.398438C13.441406 12.398438 13.601562 12.238281 13.601562 12 13.601562 11.761719 13.441406 11.601562 13.199219 11.601562 12.960938 11.601562 12.800781 11.761719 12.800781 12 12.800781 12.238281 12.960938 12.398438 13.199219 12.398438zM10.800781 12.398438C11.039062 12.398438 11.199219 12.238281 11.199219 12 11.199219 11.761719 11.039062 11.601562 10.800781 11.601562 10.558594 11.601562 10.398438 11.761719 10.398438 12 10.398438 12.238281 10.558594 12.398438 10.800781 12.398438zM10.800781 12.398438"/>
</svg>

<svg xmlns="http://www.w3.org/2000/svg" width="32" height="32" viewBox="0 0 24 24">
    <path d="M12 0C5.398 0 0 5.398 0 12s5.398 12 12 12 12-5.398 12-12S18.602 0 12 0zm0 23.2C5.84 23.2.8 18.16.8 12 .8 5.84 5.84.8 12 .8 18.16.8 23.2 5.84 23.2 12c0 6.16-5.04 11.2-11.2 11.2zm0 0"/>
    <path d="M21.602 12a9.58 9.58 0 0 0-3.176-7.113A9.507 9.507 0 0 0 13.68 2.52l-.282-.04-.007.02A9.591 9.591 0 0 0 12 2.398c-4.637 0-8.531 3.332-9.414 7.72l-.027.003-.04.277a11.01 11.01 0 0 0-.117 1.34v.024c0 .082-.004.16-.004.238 0 .078.004.16.004.238 0 .016 0 .028.004.043 0 .07.004.137.008.203v.02a9.49 9.49 0 0 0 2.387 5.855l.199.2h.008A9.582 9.582 0 0 0 12 21.602c.063 0 .121-.004.18-.004.02 0 .039 0 .058.004.242-.008.48-.024.719-.051h.027a9.607 9.607 0 0 0 5.613-2.594l.005.004.199-.121c1.8-1.84 2.8-4.238 2.8-6.8v-.02V12zm-.805.227v.003a8.782 8.782 0 0 1-2.406 5.805 3.624 3.624 0 0 1-1.993-3.234c0-2 1.602-3.602 3.602-3.602.238 0 .52.04.762.082.008.055.015.114.02.172.011.18.019.363.019.547 0 .074 0 .152-.004.227zM19.559 7.52a3.59 3.59 0 0 1-2.36.878c-2 0-3.597-1.597-3.597-3.597 0-.48.078-.957.277-1.399a8.845 8.845 0 0 1 5.36 3.61c.113.164.218.336.32.508zm-6.497-4.254c-.175.488-.261 1-.261 1.535a4.388 4.388 0 0 0 4.398 4.398 4.098 4.098 0 0 0 2.73-1.008c.344.711.594 1.473.735 2.27a3.682 3.682 0 0 0-.664-.063 4.386 4.386 0 0 0-4.398 4.403c0 1.59.84 3.023 2.195 3.804a8.937 8.937 0 0 1-1.543 1.09A4.4 4.4 0 0 0 12 16.398a4.41 4.41 0 0 0-4.277 3.286 9.022 9.022 0 0 1-1.926-1.457A4.417 4.417 0 0 0 8 14.398 4.388 4.388 0 0 0 3.602 10c-.059 0-.114.004-.172.008a8.75 8.75 0 0 1 .617-1.766A4.44 4.44 0 0 0 6.8 9.2a4.388 4.388 0 0 0 4.398-4.398c0-.547-.09-1.067-.293-1.531a8.433 8.433 0 0 1 2.156-.004zM8.52 19.879a3.604 3.604 0 0 1 3.48-2.68 3.6 3.6 0 0 1 3.52 2.84c-1.04.441-2.16.68-3.282.723-1.316 0-2.558-.32-3.718-.883zM3.234 12.75a.914.914 0 0 1-.011-.148c-.004-.024-.004-.047-.008-.07 0-.044-.004-.083-.004-.122-.004-.039-.004-.074-.004-.113-.004-.031-.004-.059-.004-.09C3.2 12.141 3.2 12.07 3.2 12c0-.05 0-.105.004-.156.008-.324.04-.653.07-.977.004-.023.008-.043.008-.066h.32c2 0 3.598 1.597 3.598 3.597a3.57 3.57 0 0 1-1.96 3.204 8.725 8.725 0 0 1-2.005-4.825v-.027zm6.887-9.348c.2.442.277.918.277 1.399 0 2-1.597 3.597-3.597 3.597a3.59 3.59 0 0 1-2.36-.878c.102-.172.207-.344.32-.508a8.845 8.845 0 0 1 5.36-3.61zm0 0"/>
    <path d="M8.8 12c0 1.762 1.438 3.2 3.2 3.2 1.762 0 3.2-1.438 3.2-3.2 0-1.762-1.438-3.2-3.2-3.2A3.206 3.206 0 0 0 8.8 12zM12 9.602A2.404 2.404 0 0 1 14.398 12 2.404 2.404 0 0 1 12 14.398 2.404 2.404 0 0 1 9.602 12 2.404 2.404 0 0 1 12 9.602zm0 0"/>
    <path d="M12 11.2c.238 0 .398-.16.398-.4 0-.241-.16-.402-.398-.402-.238 0-.398.16-.398.403 0 .238.16.398.398.398zm0 0M12 13.602c.238 0 .398-.16.398-.403 0-.238-.16-.398-.398-.398-.238 0-.398.16-.398.398 0 .242.16.403.398.403zm0 0M13.2 12.398c.241 0 .402-.16.402-.398 0-.238-.16-.398-.403-.398-.238 0-.398.16-.398.398 0 .238.16.398.398.398zm0 0M10.8 12.398c.24 0 .4-.16.4-.398 0-.238-.16-.398-.4-.398-.241 0-.402.16-.402.398 0 .238.16.398.403.398zm0 0"/>
</svg>
